public/images/bd7.svg

<svg width="100" height="100" viewBox="0 0 100 100" fill="none" xmlns="http://www.w3.org/2000/svg">
<path d="M19.9864 84.9999H18.1646V75.5224H19.9926L19.9864 84.9999ZM18.1832 75.5224V69.6522H20.0112V75.5286L18.1832 75.5224ZM18.1832 84.9999H16.3366V79.0988H4.59395V84.9999H0.999893V69.646H4.59395V75.5163H18.1646V84.9938L18.1832 84.9999ZM18.1832 69.6522H16.3366V75.5286H18.1956L18.1832 69.6522Z" fill="#BA160C"/>
<path d="M38.8862 77.212C39.49 77.5797 39.982 78.1039 40.3094 78.7285C40.6369 79.353 40.7875 80.0544 40.7452 80.7576C40.7603 81.3245 40.6578 81.8885 40.444 82.4142C40.2302 82.94 39.9098 83.4162 39.5027 83.8132C39.0956 84.2102 38.6107 84.5193 38.0781 84.7214C37.5456 84.9235 36.9769 85.0141 36.4075 84.9876H31.1466V81.4112H36.4323C36.9529 81.4112 37.2131 81.0227 37.2131 80.2458C37.2131 79.4688 36.9529 79.0824 36.4323 79.0865H31.1466V75.5471H36.1659C36.6864 75.5471 36.9467 75.1586 36.9467 74.3817C36.9467 73.6047 36.6864 73.2183 36.1659 73.2224H31.1466V69.646H36.1659C36.7716 69.6156 37.3766 69.7174 37.9386 69.9443C38.5006 70.1712 39.0059 70.5176 39.4191 70.9594C40.1405 71.7609 40.5263 72.8067 40.4973 73.8822C40.5228 74.526 40.3893 75.1662 40.1084 75.7467C39.8275 76.3272 39.4079 76.8303 38.8862 77.212ZM31.1466 84.9999H21.486V75.5471H31.1466V79.0927H25.0801V81.4174H31.1466V84.9938V84.9999ZM31.1466 73.2286H25.0801V75.6643L21.486 75.5779V69.6583H31.1466V73.2348V73.2286Z" fill="#BA160C"/>
<path d="M42.4307 65.6564V64.0224H45.1138V63.0296C45.1138 62.6761 44.994 62.4993 44.7544 62.4993H42.4307V60.8653H44.7544C45.0271 60.8534 45.299 60.9026 45.55 61.0094C45.8009 61.1161 46.0246 61.2776 46.2044 61.4819C46.5739 61.9055 46.7726 62.4503 46.7621 63.0111V67.9009H45.1138V65.6564H42.4307ZM64.3296 67.9009H58.8642C58.2583 67.9193 57.6699 67.6975 57.2283 67.2843C57.0089 67.0818 56.8353 66.8353 56.7189 66.5611C56.6024 66.2868 56.5458 65.9911 56.5529 65.6934V63.0913C56.5458 62.7936 56.6024 62.4979 56.7189 62.2236C56.8353 61.9494 57.0089 61.7029 57.2283 61.5004C57.6699 61.0872 58.2583 60.8654 58.8642 60.8838H64.3296V62.524H58.8642C58.4263 62.524 58.2074 62.7295 58.2074 63.1406V65.7243C58.2074 66.1353 58.4263 66.3409 58.8642 66.3409H64.3296V67.9009ZM81.6803 67.9009H80.0196V65.194H75.7934V67.9009H74.1204V60.8653H75.7687V63.5537H79.9948V60.8653H81.6555L81.6803 67.9009ZM99.0309 62.5055H93.1441V63.5599H98.6467V65.2001H93.1441V66.2669H99.0185V67.9009H91.471V60.8653H99.0061V62.5055H99.0309ZM42.4307 60.8653V62.5055H40.0884C39.8611 62.5055 39.7475 62.6822 39.7475 63.0358V64.0224H42.4307V65.6626H39.7475V67.9009H38.0992V63.0296C38.0888 62.4688 38.2875 61.924 38.6569 61.5004C38.8339 61.2975 39.0544 61.1368 39.3022 61.0301C39.5499 60.9234 39.8186 60.8734 40.0884 60.8838H42.4307V60.8653ZM23.8779 65.6071V63.9669H26.2946C26.5342 63.9669 26.654 63.7264 26.654 63.2454C26.654 62.7645 26.5342 62.5178 26.2946 62.5055H23.8779V60.8653H26.2946C26.5847 60.8595 26.8716 60.9251 27.13 61.0564C27.3884 61.1876 27.6102 61.3804 27.7756 61.6175C28.1278 62.0866 28.3112 62.66 28.2961 63.2454C28.3171 63.8335 28.1332 64.4108 27.7756 64.8795C27.6102 65.1166 27.3884 65.3094 27.13 65.4407C26.8716 65.5719 26.5847 65.6376 26.2946 65.6318L23.8779 65.6071ZM9.6752 67.9009H8.0145V65.6564H5.33755V64.0224H8.0207V63.0296C8.0207 62.6761 7.9009 62.4993 7.66129 62.4993H5.33755V60.8653H7.66129C7.93397 60.8534 8.20584 60.9026 8.45682 61.0094C8.7078 61.1161 8.93147 61.2776 9.11131 61.4819C9.48735 61.9094 9.68857 62.4616 9.6752 63.0296V67.9009ZM23.8779 60.8653V62.5055H21.108V63.9669H23.8779V65.6071H21.108V67.9009H19.4597V60.8653H23.8779ZM5.33755 65.6564H2.6482V67.9009H0.999894V63.0296C0.989471 62.4688 1.18815 61.924 1.55759 61.5004C1.73458 61.2975 1.95509 61.1368 2.20284 61.0301C2.45059 60.9234 2.71925 60.8734 2.98902 60.8838H5.33755V62.524H2.98902C2.76181 62.524 2.6482 62.7007 2.6482 63.0543V64.0409H5.33755V65.6564Z" fill="#666666"/>
<path d="M61.1074 84.9999H57.5133V80.1101H51.6637V76.5337H57.5195V74.3878C57.5195 73.615 57.2593 73.2286 56.7387 73.2286H51.6637V69.6522H56.7697C57.3638 69.6362 57.954 69.7532 58.4967 69.9943C59.0393 70.2355 59.5207 70.5948 59.9052 71.0457C60.7208 71.9657 61.1627 73.155 61.1446 74.3817L61.1074 84.9999ZM51.6637 80.1101H45.8079V84.9999H42.2138V74.3878C42.1957 73.1612 42.6376 71.9718 43.4531 71.0519C43.835 70.599 44.3148 70.2378 44.8567 69.9954C45.3986 69.753 45.9885 69.6357 46.5824 69.6522H51.6885V73.2286H46.5577C46.0578 73.2286 45.8079 73.615 45.8079 74.3878V76.5337H51.6637V80.1101Z" fill="#BA160C"/>
<path d="M81.0606 80.258C81.0914 81.4674 80.6746 82.6458 79.8894 83.5693C79.5013 84.0281 79.0149 84.3948 78.466 84.6423C77.917 84.8898 77.3193 85.012 76.7168 84.9999H63.4187V81.4235H76.7168C77.2166 81.4235 77.4665 81.035 77.4665 80.258C77.4665 79.4811 77.2166 79.0947 76.7168 79.0988H67.0438C66.4412 79.1109 65.8435 78.9887 65.2946 78.7412C64.7456 78.4937 64.2592 78.1271 63.8711 77.6682C63.069 76.7651 62.6415 75.5926 62.6751 74.3878C62.657 73.1611 63.0989 71.9718 63.9145 71.0518C64.3003 70.5988 64.7835 70.2379 65.3284 69.9956C65.8732 69.7533 66.4658 69.6359 67.0624 69.6521H80.317V73.2285H67.0438C66.5439 73.2285 66.294 73.6149 66.294 74.3878C66.294 75.1606 66.5439 75.5388 67.0438 75.5224H76.7168C77.3193 75.5102 77.917 75.6324 78.466 75.88C79.0149 76.1275 79.5013 76.4941 79.8894 76.9529C80.6732 77.8749 81.0899 79.0508 81.0606 80.258Z" fill="#BA160C"/>
<path d="M82.554 84.9999V69.646H98.9999V73.2224H86.148V75.5224H98.1571V79.0988H86.148V81.4235H98.9689V84.9999H82.554Z" fill="#BA160C"/>
<path d="M79.1954 42.2617C79.0984 42.1364 79.0211 41.9971 78.9661 41.8486C78.7457 41.4114 78.3603 41.0788 77.8941 40.9237C77.5818 40.7928 77.2863 40.6252 77.0142 40.4242C76.5246 40.0481 76.1157 39.9802 74.6904 40.0234C73.1289 40.0727 72.5712 39.8508 72.1436 39.0183L71.9329 38.6052L71.8028 39.0615C71.5487 39.9556 71.2513 40.1837 70.4643 40.1036C70.2642 40.0633 70.0575 40.0702 69.8605 40.1238C69.6636 40.1773 69.482 40.276 69.3303 40.4119C69.132 40.5845 69.0887 40.5969 68.8966 40.5105C68.7045 40.4242 68.6735 40.4242 68.4876 40.6339C68.3445 40.7987 68.1419 40.9006 67.9237 40.9175C67.4651 40.9977 67.304 41.2012 67.1429 41.7623C66.8889 42.8167 66.3621 42.5516 65.9036 41.1457C65.3645 39.5671 65.8106 38.4202 67.6263 36.6875C68.562 35.7995 68.9461 35.2939 69.1135 34.7636C69.2374 34.3505 69.256 34.332 69.4109 34.443C70.2184 35.153 70.9781 35.9151 71.6851 36.7245C72.4411 37.5939 72.6331 37.7419 72.7385 37.5322C72.8438 37.3226 72.187 36.5333 71.1274 35.4481C68.4938 32.7596 65.4326 31.2303 62.1732 30.9837C60.8553 30.8427 59.523 31.0357 58.3003 31.5448C57.4555 31.786 56.6469 32.1386 55.896 32.5931C54.4752 33.4668 53.13 34.4569 51.8744 35.5529C50.288 36.891 50.288 36.891 48.2246 36.854C47.388 36.854 46.3656 36.854 46.0185 36.854C45.1863 36.931 44.3787 37.1765 43.6452 37.5754C42.7427 38.2605 41.965 39.0948 41.3463 40.0419C40.662 41.1103 39.771 42.0326 38.7251 42.7551C37.9257 43.273 37.6221 43.5998 37.5291 44.0253C37.4846 44.168 37.4807 44.3202 37.5179 44.465C37.5551 44.6098 37.6319 44.7415 37.7398 44.8454C38.5143 45.2167 39.3388 45.4742 40.1875 45.61C40.4161 45.65 40.6402 45.712 40.8567 45.795C40.9497 45.869 39.8095 47.0283 38.942 47.7189C37.06 49.157 35.0107 50.364 32.8383 51.3138C31.623 51.837 30.4764 52.5059 29.4239 53.3055C28.9158 53.6755 28.1846 54.1749 27.7508 54.4154C25.9476 55.4698 24.0328 55.587 23.4132 54.6806C23.3199 54.5347 23.2026 54.4054 23.0662 54.2983C22.7825 54.08 22.5532 53.7995 22.3963 53.4786C22.2394 53.1578 22.159 52.8052 22.1614 52.4484C22.146 51.9748 22.0963 51.5028 22.0127 51.0363C21.685 49.438 21.6514 47.7937 21.9136 46.1835C22.3721 43.3655 23.8717 39.4746 25.9786 35.6269C27.3728 33.0864 28.8104 31.0084 32.262 26.5563C34.3936 23.8062 34.4122 23.7754 34.4308 22.7888C34.4308 22.5668 34.3503 21.1979 34.2387 19.7426C33.8979 15.2043 34.0528 13.3914 34.9265 11.7265C35.4347 10.8756 36.4447 10.0616 37.1759 9.99997C37.5911 9.96914 37.6779 10.148 37.7956 11.301C37.8889 12.8915 38.1996 14.4619 38.7189 15.9689C39.2456 17.529 39.5492 18.0962 40.1689 18.7005C41.0178 19.5268 41.4082 19.607 43.5647 19.3172C51.1184 18.3737 56.5776 18.9534 61.0578 21.167C65.2158 23.2142 69.3923 27.21 73.0793 32.6547L73.7795 33.6907L74.5355 33.9435C76.2186 34.4222 77.6875 35.4575 78.6997 36.8786C79.34 37.9913 79.733 39.2277 79.8522 40.5044C79.9266 41.7068 79.8522 42.2556 79.5238 42.3542C79.467 42.3629 79.4089 42.3553 79.3563 42.3324C79.3036 42.3095 79.2586 42.2721 79.2264 42.2248L79.1954 42.2617ZM78.5386 39.9124C78.4487 39.5375 78.3286 39.1704 78.1792 38.8148C77.6636 37.3843 76.6013 36.2142 75.2233 35.559C74.077 34.9424 72.1808 34.3998 71.7532 34.5478C71.5921 34.6033 71.5921 34.6341 71.7532 34.9733C71.9865 35.3697 72.254 35.7452 72.5526 36.0955C72.8508 36.4439 73.1183 36.8174 73.352 37.2116C73.5007 37.5261 73.5069 37.6062 73.3891 37.8282C73.2714 38.0502 72.9926 38.2475 72.5588 38.155C72.3791 38.118 72.2242 38.1057 72.2118 38.155C72.2325 38.2803 72.2789 38.3999 72.3481 38.5065C72.6765 39.1231 73.1351 39.2403 74.7152 39.1848C77.0266 39.0923 77.5533 39.2341 78.2225 40.1036C78.3651 40.2886 78.5633 40.1776 78.5386 39.9186V39.9124ZM27.4906 53.8481C28.0048 53.549 28.5032 53.2238 28.984 52.8739C30.289 51.9544 31.6696 51.1458 33.1109 50.4567C34.8139 49.6435 36.447 48.6928 37.9939 47.614C38.7127 47.0838 39.3324 46.5103 39.2952 46.3808C39.0861 46.2859 38.8652 46.2195 38.6383 46.1835C38.112 46.0407 37.5997 45.8508 37.1078 45.6162C36.7972 45.4517 36.4714 45.3174 36.1349 45.2154C35.6881 45.5454 35.3164 45.9656 35.0443 46.4486C33.6686 48.4033 33.1171 48.9151 30.4092 50.4875C29.5211 50.9268 28.7275 51.5342 28.073 52.2757C27.6768 52.836 27.1761 53.3154 26.5982 53.6878C26.2349 53.9162 25.8486 54.1063 25.4457 54.2551C24.6091 54.5387 24.6029 54.8286 25.4457 54.6991C26.1719 54.5334 26.8666 54.2523 27.503 53.8666L27.4906 53.8481ZM67.2235 40.2824C67.3153 40.1175 67.4347 39.9694 67.5767 39.8446L67.8679 39.5794H68.6797C69.6959 39.5486 70.9167 39.1786 71.1583 38.8333L71.5116 38.3339C71.6355 38.1612 71.7842 38.044 71.8772 38.044C71.9701 38.044 72.0321 38.044 72.0321 38.044C72.0321 38.044 69.9996 35.7749 69.8385 35.6515L69.6464 35.5035L69.3551 35.9537C69.194 36.2003 68.6053 36.9341 68.0538 37.5877C66.6348 39.2588 66.2568 39.9926 66.579 40.4797C66.672 40.6215 66.7463 40.6462 66.926 40.5845C67.0511 40.5421 67.1552 40.4539 67.2173 40.3379L67.2235 40.2824ZM32.0327 47.0653C32.168 46.9371 32.2774 46.7843 32.3549 46.6151C32.5037 45.9492 31.1838 46.4548 31.0103 47.1331C30.9669 47.3119 31.0103 47.3489 31.128 47.4229C31.2457 47.4969 31.6857 47.4229 32.0265 47.0653H32.0327ZM33.9599 44.4816C34.5735 44.0733 35.1556 43.6199 35.7011 43.125C36.1782 42.5938 36.4771 41.9278 36.5563 41.2197C36.6062 40.8907 36.7043 40.5707 36.8475 40.2701C36.9476 40.1148 37.0052 39.9363 37.0148 39.7521C36.8041 39.1355 34.5733 39.5733 33.3464 40.4735C31.8592 41.565 30.8677 43.7971 31.2395 45.0921C31.4812 45.8875 31.9274 45.7765 33.9413 44.4384L33.9599 44.4816ZM65.9098 30.9652C65.527 30.5911 65.08 30.2883 64.5899 30.0711C63.4918 29.5977 62.3038 29.3663 61.1074 29.3928C60.1407 29.3558 59.7255 29.2818 59.6698 29.1215C59.6742 29.024 59.7018 28.9289 59.7503 28.844C60.0478 28.2274 62.3839 28.0732 64.2181 28.511C65.0196 28.7099 65.8015 28.9803 66.5542 29.3188C67.1305 29.5778 67.2111 29.5963 67.1739 29.4421C66.7927 28.9187 66.3102 28.4764 65.7549 28.1411C63.8237 26.9066 61.5346 26.3469 59.2484 26.5502C57.5916 26.6071 55.9831 27.1193 54.6009 28.0301C53.2851 29.0824 52.2028 30.3946 51.422 31.884C50.7722 33.1401 50.035 34.3495 49.216 35.5035C49.0457 35.6798 48.9147 35.89 48.8318 36.1202C49.022 36.1796 49.2221 36.2006 49.4205 36.1818H49.9534L50.9511 35.2384C52.556 33.6479 54.3845 32.2978 56.3793 31.2303C59.0238 30.0934 61.9914 29.9423 64.7386 30.8049C65.6619 31.0639 65.9779 31.107 65.9098 30.9775V30.9652ZM46.5638 44.9811C44.0225 45.5226 41.3877 45.4507 38.88 44.7714C38.3409 44.6173 38.1674 44.5309 38.0868 44.3583C37.8885 43.9328 38.2046 43.5382 39.2146 42.94C40.1069 42.4159 40.6337 41.8794 41.7429 40.3687C43.2424 38.3339 43.9117 37.7542 45.2192 37.3966C45.8388 37.2301 46.2416 37.1993 48.4538 37.1931C51.769 37.1931 55.3135 37.2301 55.6048 37.3041C56.2678 37.4644 55.7597 39.0553 54.5947 40.4674C53.5881 41.6366 52.3767 42.6144 51.0192 43.3532C49.5854 44.0257 48.0944 44.5705 46.5638 44.9811ZM23.785 38.9073C23.6495 38.6299 23.5456 38.3382 23.4751 38.0379C23.0029 36.1071 23.2517 34.0713 24.1754 32.3094C24.4719 31.7369 24.8958 31.2392 25.4147 30.8542C25.6749 30.7679 25.9352 30.9837 26.3938 31.6866C26.5845 31.9973 26.8158 32.2814 27.0816 32.5314C27.2179 32.6239 27.3233 32.7164 27.3109 32.7349L26.6912 33.666C25.8089 35.0522 25.0181 36.494 24.3241 37.9824C23.9399 38.8395 23.8407 38.9936 23.754 38.8888L23.785 38.9073Z" fill="#050505"/>
</svg>

<svg xmlns="http://www.w3.org/2000/svg" width="100" height="100" fill="none"><path fill="#BA160C" d="M19.986 85h-1.821v-9.478h1.828zm-1.803-9.478v-5.87h1.828v5.877zm0 9.478h-1.846v-5.901H4.594v5.9H1V69.647h3.594v5.87h13.57v9.478zm0-15.348h-1.846v5.877h1.859zM38.886 77.212a3.9 3.9 0 0 1 1.423 1.516c.328.625.479 1.326.436 2.03a4.1 4.1 0 0 1-1.242 3.055 4.15 4.15 0 0 1-3.096 1.175h-5.26V81.41h5.285q.78 0 .781-1.165 0-1.166-.78-1.16h-5.286v-3.539h5.019q.78 0 .78-1.165t-.78-1.16h-5.02v-3.576h5.02a4.18 4.18 0 0 1 3.253 1.313 4.2 4.2 0 0 1 1.078 2.923 3.92 3.92 0 0 1-1.61 3.33M31.146 85h-9.66v-9.453h9.66v3.546H25.08v2.324h6.067V85m0-11.771H25.08v2.435l-3.594-.086v-5.92h9.66v3.577z"/><path fill="#666" d="M42.43 65.656v-1.634h2.684v-.992q0-.53-.36-.53h-2.323v-1.635h2.323a1.83 1.83 0 0 1 1.45.617c.37.424.569.968.558 1.53V67.9h-1.648v-2.245zm21.9 2.245h-5.466a2.3 2.3 0 0 1-1.636-.617 2.1 2.1 0 0 1-.675-1.59V63.09a2.1 2.1 0 0 1 .675-1.59 2.3 2.3 0 0 1 1.636-.617h5.466v1.64h-5.466q-.657 0-.657.617v2.583q0 .617.657.617h5.466zm17.35 0h-1.66v-2.707h-4.227v2.707H74.12v-7.036h1.649v2.689h4.226v-2.689h1.66zm17.35-5.395h-5.886v1.054h5.503v1.64h-5.503v1.067h5.874V67.9h-7.547v-7.036h7.535v1.64zm-56.6-1.64v1.64h-2.342q-.34 0-.34.53v.986h2.683v1.64h-2.683v2.239h-1.649V63.03c-.01-.561.189-1.106.558-1.53a1.8 1.8 0 0 1 1.431-.616h2.343zm-18.552 4.741v-1.64h2.417q.36 0 .359-.722 0-.72-.36-.74h-2.416v-1.64h2.417a1.77 1.77 0 0 1 1.48.752 2.6 2.6 0 0 1 .521 1.628 2.54 2.54 0 0 1-.52 1.634 1.76 1.76 0 0 1-1.481.753zM9.675 67.901h-1.66v-2.245H5.338v-1.634H8.02v-.992q0-.53-.36-.53H5.338v-1.635H7.66a1.83 1.83 0 0 1 1.45.617c.376.427.578.98.564 1.548zm14.203-7.036v1.64h-2.77v1.462h2.77v1.64h-2.77v2.294H19.46v-7.036zm-18.54 4.791h-2.69v2.245H1V63.03c-.01-.561.188-1.106.558-1.53a1.8 1.8 0 0 1 1.431-.616h2.349v1.64H2.989q-.34 0-.34.53v.987h2.689z"/><path fill="#BA160C" d="M61.107 85h-3.594v-4.89h-5.85v-3.576h5.857v-2.146q0-1.16-.781-1.16h-5.075v-3.576h5.106a3.99 3.99 0 0 1 3.135 1.394 4.92 4.92 0 0 1 1.24 3.336zm-9.443-4.89h-5.856V85h-3.594V74.388a4.92 4.92 0 0 1 1.24-3.336 3.94 3.94 0 0 1 3.128-1.4h5.106v3.577h-5.13q-.75 0-.75 1.159v2.146h5.856zM81.06 80.258a4.92 4.92 0 0 1-1.17 3.311A4.04 4.04 0 0 1 76.716 85H63.419v-3.575h13.298q.75 0 .75-1.166t-.75-1.16h-9.673a4.06 4.06 0 0 1-3.173-1.43 4.74 4.74 0 0 1-1.196-3.28 4.92 4.92 0 0 1 1.24-3.336 3.98 3.98 0 0 1 3.147-1.4h13.255v3.576H67.044q-.75 0-.75 1.16t.75 1.134h9.673a4.06 4.06 0 0 1 3.172 1.43 4.92 4.92 0 0 1 1.172 3.306M82.554 85V69.646H99v3.576H86.148v2.3h12.01V79.1h-12.01v2.325h12.82V85z"/><path fill="#050505" d="M79.195 42.262a1.6 1.6 0 0 1-.229-.413 1.86 1.86 0 0 0-1.072-.925 4.2 4.2 0 0 1-.88-.5c-.49-.376-.898-.444-2.324-.4-1.561.049-2.119-.173-2.546-1.006l-.211-.413-.13.457c-.254.894-.552 1.122-1.339 1.042a1.31 1.31 0 0 0-1.134.308c-.198.172-.241.185-.433.099-.193-.087-.224-.087-.41.123a.83.83 0 0 1-.563.283c-.459.08-.62.284-.781.845-.254 1.055-.78.79-1.24-.616-.538-1.579-.092-2.726 1.723-4.459.936-.887 1.32-1.393 1.487-1.923.124-.414.143-.432.298-.321q1.212 1.066 2.274 2.282c.756.869.948 1.017 1.053.807.106-.21-.551-.999-1.61-2.084-2.634-2.688-5.695-4.218-8.955-4.464a7.9 7.9 0 0 0-3.873.56 9.9 9.9 0 0 0-2.404 1.05 30 30 0 0 0-4.022 2.959c-1.586 1.338-1.586 1.338-3.65 1.301H46.02a6.2 6.2 0 0 0-2.374.721 9.9 9.9 0 0 0-2.299 2.467 9.6 9.6 0 0 1-2.62 2.713c-.8.518-1.104.845-1.197 1.27a.8.8 0 0 0 .21.82 9 9 0 0 0 2.449.765q.343.06.669.185c.093.074-1.047 1.233-1.915 1.924a29.6 29.6 0 0 1-6.104 3.595 16.3 16.3 0 0 0-3.414 1.992c-.508.37-1.24.869-1.673 1.11-1.803 1.054-3.718 1.171-4.338.265a1.5 1.5 0 0 0-.347-.383 2.32 2.32 0 0 1-.905-1.85 10 10 0 0 0-.148-1.412 13.4 13.4 0 0 1-.1-4.852c.46-2.818 1.959-6.71 4.066-10.557 1.394-2.54 2.831-4.619 6.283-9.07 2.132-2.75 2.15-2.782 2.169-3.768 0-.222-.08-1.591-.192-3.046-.341-4.539-.186-6.352.688-8.016.508-.851 1.518-1.665 2.249-1.727.415-.03.502.148.62 1.301.093 1.59.404 3.16.923 4.668.527 1.56.83 2.127 1.45 2.732.849.826 1.24.906 3.396.616 7.553-.943 13.013-.364 17.493 1.85 4.158 2.047 8.334 6.043 12.021 11.488l.7 1.036.757.252A7.7 7.7 0 0 1 78.7 36.88a8.9 8.9 0 0 1 1.152 3.625c.075 1.203 0 1.752-.328 1.85a.3.3 0 0 1-.298-.13zm-.656-2.35a7 7 0 0 0-.36-1.097 5.78 5.78 0 0 0-2.956-3.256c-1.146-.617-3.042-1.16-3.47-1.011-.16.055-.16.086 0 .425q.351.596.8 1.123.448.523.799 1.116c.149.314.155.394.037.616s-.396.42-.83.327c-.18-.037-.335-.05-.347 0q.031.19.136.352c.329.616.787.733 2.367.678 2.312-.093 2.838.05 3.507.919.143.185.341.074.317-.185zM27.49 53.848q.771-.449 1.493-.974a28.5 28.5 0 0 1 4.127-2.417 34.6 34.6 0 0 0 4.883-2.843c.719-.53 1.338-1.104 1.301-1.233a2.6 2.6 0 0 0-.657-.197 9 9 0 0 1-1.53-.568 5.5 5.5 0 0 0-.973-.4c-.447.33-.819.75-1.09 1.233-1.376 1.954-1.928 2.466-4.636 4.038a7.6 7.6 0 0 0-2.336 1.789 5.4 5.4 0 0 1-1.475 1.412c-.363.228-.75.418-1.152.567-.837.284-.843.574 0 .444a7 7 0 0 0 2.057-.832zm39.733-13.566c.091-.164.21-.313.353-.437l.29-.266h.813c1.016-.03 2.237-.4 2.478-.746l.354-.5c.123-.172.272-.289.365-.289h.155S70 35.774 69.84 35.652l-.193-.148-.29.45c-.162.246-.75.98-1.302 1.634-1.42 1.67-1.797 2.405-1.475 2.892.093.142.167.166.347.105a.52.52 0 0 0 .291-.247zm-35.191 6.783q.204-.194.322-.45c.149-.666-1.171-.16-1.345.518-.043.179 0 .216.118.29s.558 0 .898-.358zm1.927-2.583a15 15 0 0 0 1.741-1.357 3.42 3.42 0 0 0 .855-1.905 3.4 3.4 0 0 1 .291-.95c.1-.155.158-.334.168-.518-.21-.617-2.442-.179-3.669.721-1.487 1.092-2.478 3.324-2.106 4.62.241.794.687.683 2.701-.655zm31.95-13.517a4.5 4.5 0 0 0-1.32-.894 8.3 8.3 0 0 0-3.483-.678c-.966-.037-1.382-.111-1.437-.271a.6.6 0 0 1 .08-.278c.298-.617 2.634-.77 4.468-.333a14 14 0 0 1 2.336.808c.576.259.657.277.62.123a4.9 4.9 0 0 0-1.42-1.3 10.38 10.38 0 0 0-6.506-1.592 9 9 0 0 0-4.647 1.48 12.2 12.2 0 0 0-3.179 3.854 30 30 0 0 1-2.206 3.62c-.17.176-.301.386-.384.616.19.06.39.08.588.062h.533l.998-.944a23.4 23.4 0 0 1 5.428-4.008 12.04 12.04 0 0 1 8.36-.425c.923.259 1.239.302 1.17.172zM46.564 44.981c-2.541.542-5.176.47-7.684-.21-.54-.154-.713-.24-.793-.413-.199-.425.118-.82 1.128-1.418.892-.524 1.419-1.06 2.528-2.571 1.5-2.035 2.169-2.615 3.476-2.972.62-.167 1.023-.198 3.235-.204 3.315 0 6.86.037 7.15.111.664.16.156 1.751-1.01 3.163a12.8 12.8 0 0 1-3.575 2.886 27 27 0 0 1-4.455 1.628m-22.779-6.074a4 4 0 0 1-.31-.87 8.16 8.16 0 0 1 .7-5.728c.297-.572.72-1.07 1.24-1.455.26-.086.52.13.979.833.19.31.422.594.688.844.136.093.241.185.229.204l-.62.931a38 38 0 0 0-2.367 4.316c-.384.858-.483 1.012-.57.907z"/></svg>
